!!!COM: Palestrina, Giovanni Perluigi da
!!!OPR: Missa Dilexi quoniam
!!!OMD: Benedictus
!!!OTL: First Section
**kern	**kern	**kern	**kern
*Ibass	*Itenor	*Icalto	*Icant
!Bassus	!Tenor	!Altus	!Cantus
*clefF4	*clefGv2	*clefG2	*clefG2
*k[]	*k[]	*k[]	*k[]
*C:ion	*C:ion	*C:ion	*C:ion
*M4/2	*M4/2	*M4/2	*M4/2
=1	=1	=1	=1
0r	0r	1r	0dd
.	.	[1g	.
=2	=2	=2	=2
0r	0r	2g]	1b
.	.	2e	.
.	.	1f#	1a
=3	=3	=3	=3
0r	0r	0g	2g
.	.	.	4g
.	.	.	4a
.	.	.	4b
.	.	.	4cc
.	.	.	4dd
.	.	.	4b
=4	=4	=4	=4
0r	0r	2r	4cc
.	.	.	4dd
.	.	4c	2.ee
.	.	4d	.
.	.	4e	.
.	.	4f	4dd
.	.	4g	4b
.	.	4e	4cc
=5	=5	=5	=5
0r	0r	4f	2dd
.	.	4g	.
.	.	2.a	4cc
.	.	.	4dd
.	.	.	4ee
.	.	4g	4ff
.	.	4e	4gg
.	.	4f	4ff
=6	=6	=6	=6
0r	0r	2g	4ee
.	.	.	4dd
.	.	4f	1ff
.	.	4g	.
.	.	4a	.
.	.	4b	.
.	.	[2cc	2ee
=7	=7	=7	=7
1r	0g	2cc]	1dd
.	.	2b	.
[1c	.	1cc	2ee
.	.	.	[2cc
=8	=8	=8	=8
2c]	1e	1c	2cc]
2A	.	.	2cc
1B	1d	2r	1dd
.	.	[2g	.
=9	=9	=9	=9
0c	2c	2g]	2.ee
.	4c	2g	.
.	4d	.	4ff
.	4e	4c	2gg
.	4f	4d	.
.	4g	4e	2ee
.	4e	4c	.
=10	=10	=10	=10
2r	4f	4d	2dd
.	4g	4e	.
4F	2.a	2f	4cc
4G	.	.	4b
4A	.	1e	4cc
4B	4g	.	4dd
4c	4e	.	2ee
4A	4f	.	.
=11	=11	=11	=11
4B	2g	1r	2.dd
4c	.	.	.
2.d	4f	.	.
.	4e	.	8cc
.	.	.	8b
.	4f	2r	1a
4c	4g	.	.
4A	2a	4c	.
4B	.	4d	.
=12	=12	=12	=12
1c	1g	4e	0r
.	.	4f	.
.	.	4g	.
.	.	4e	.
2.F	2a	4f	.
.	.	4g	.
.	[2f	[2a	.
4G	.	.	.
=13	=13	=13	=13
1A	4f]	4a]	1r
.	4e	4g	.
.	4c	4e	.
.	4d	4f	.
2.E	4e	4g	2r
.	4d	4f	.
.	2c	2e	4g
4F	.	.	4a
=14	=14	=14	=14
1G	2B	1d	4b
.	.	.	4cc
.	2G	.	4dd
.	.	.	4b
1C	2.g	2.e	4cc
.	.	.	4dd
.	.	.	[2ee
.	4f	4f	.
=15	=15	=15	=15
2.E	1e	0g	4ee]
.	.	.	4dd
.	.	.	1cc
4F	.	.	.
1G	1d	.	.
.	.	.	2b
=16	=16	=16	=16
1C	1c	2r	2cc
.	.	2cc	2ee
1r	1r	2a	2ff
.	.	2b	2dd
=17	=17	=17	=17
2r	2r	1.cc	1ee
2c	2e	.	.
2A	2f	.	1r
2B	2d	4b	.
.	.	4a	.
=18	=18	=18	=18
1c	1e	2g	2r
.	.	2cc	2ee
1r	1r	2a	2ff
.	.	2b	2dd
=19	=19	=19	=19
0r	0r	1cc	2ee
.	.	.	2.gg
.	.	2r	.
.	.	.	4ff
.	.	[2cc	4ee
.	.	.	4dd
=20	=20	=20	=20
0r	1r	4cc]	2ee
.	.	4b	.
.	.	4a	2.ff
.	.	4g	.
.	2r	4a	.
.	.	4g	4ee
.	2c	4g	[2ee
.	.	8f	.
.	.	8e	.
=21	=21	=21	=21
1r	2A	2f	2ee]
.	2B	2f	2dd
2r	2c	1e	2.ee
2c	2e	.	.
.	.	.	4dd
=22	=22	=22	=22
2A	2f	0r	2cc
2B	2d	.	4b
.	.	.	4a
1c	2e	.	1g
.	[2g	.	.
=23	=23	=23	=23
2r	4g]	0r	0r
.	4f	.	.
2.c	4e	.	.
.	4d	.	.
.	2e	.	.
4B	.	.	.
4A	[2f	.	.
4G	.	.	.
=24	=24	=24	=24
2A	4f]	1r	1cc
.	4e	.	.
2E	1e	.	.
2F	.	2r	2a
2G	2d	[2g	2b
=25	=25	=25	=25
1C	2e	2g]	1.cc
.	2c	2e	.
1r	2A	2f	.
.	2B	[2g	4b
.	.	.	4a
=26	=26	=26	=26
0r	2c	4g]	1g
.	.	4f	.
.	2.g	4e	.
.	.	4d	.
.	.	1c	2r
.	4f	.	.
.	4e	.	[2gg
.	4d	.	.
=27	=27	=27	=27
0r	4e	2r	4gg]
.	4d	.	4ff
.	4c	2.cc	4ee
.	4B	.	4dd
.	4A	.	2ee
.	8B	4b	.
.	8c	.	.
.	[2d	4a	[2ff
.	.	4g	.
=28	=28	=28	=28
1r	2d]	2a	4ff]
.	.	.	4ee
.	2G	2.b	2.dd
2r	1A	.	.
.	.	4a	4cc
2F	.	[2a	4cc
.	.	.	8b
.	.	.	8a
=29	=29	=29	=29
2D	2r	2a]	2b
2E	2e	2g#	2b
2.F	2c	1a	1a
.	2d	.	.
8E	.	.	.
8D	.	.	.
=30	=30	=30	=30
2C	2.e	2r	2r
2c	.	2e	2cc
.	8d	.	.
.	8c	.	.
2F	1d	2f	2a
2G	.	2d	2b
=31	=31	=31	=31
1C	2r	2.e	1cc
.	2.g	.	.
.	.	4d	.
2r	.	1c	2.gg
.	4f	.	.
[2c	4e	.	.
.	4d	.	4ff
=32	=32	=32	=32
4c]	1e	2r	4ee
4B	.	.	4dd
4A	.	2.cc	4cc
4G	.	.	4b
[1F	2.f	.	4a
.	.	4b	4g
.	.	4a	4f
.	4e	4g	4g
=33	=33	=33	=33
2F]	2d	2f	4a
.	.	.	4b
2A	2c	4e	1cc
.	.	4f	.
1G	2.d	2.g	.
.	.	.	2b
.	4d	4g	.
=34	=34	=34	=34
[0C	[0e	[0g	[0cc
=35	=35	=35	=35
0C]	0e]	0g]	0cc]
*-	*-	*-	*-
!!!CDT: 1525/^1526/-1594/2/2
!!!OCY: Italia
!!!AGN: Mass (Parody)
!!!AST: renaissance, vocal
!!!ASW: Motet (Maffoni)
!!!PWK: Masses, Book 6
!!!RNB: Cadence finals: G,A
!!!YOR: Le Opere Complete, v. 21, p. 105
!!!YOO: Rome, Italy: Fratelli Scalera
!!!END: 1992//
!!!EED: John Miller
!!!YEC: Copyright 2000, John Miller
!!!YEN: United States of America
!!!YEM: Rights to all derivative electronic formats reserved.
!!!YEM: Refer to licensing agreement for further details.
!!!YEM: This file must be accompanied by the licensing agreement.
!!!YEM: A copy of the licensing agreement may be found at http://www.music-cog.ohio-state.edu/HumdrumDatabases/Palestrina/license.txt
!!!EMD: converted to Humdrum by Bret Aarden
